X:1
T:The Eleven Year Polka
M:C
L:1/8
Q:160
C:(c) Greg Anderson, Aug 1996
R:polka
N:A tune written for my wife, Patsy, on the occasion of our eleventh
N:wedding anniversary
K:D
Ad e|:f>e ed dd ed|d B2 G B2 de|f>e ed dd ef|e4- eA de|
f>e ed dd ed|d B2 G B2 cB|A>c ef ge Bc|1d4- dA de:|2d6 ed
|:c2 cd e2 dc|B A2 F A2 ef|g>a ge cc de|f6 fg |a>g fe df ga|
b>a gf e>f ed|c>d cB Ag fe|1d6 ed:|2d4- dA de||
